src/assets/images/free-demat-compaign/identity-proof-to-open-free-demat-account.svg

<svg width="105" height="80" viewBox="0 0 105 80" fill="none" xmlns="http://www.w3.org/2000/svg">
<path d="M101.097 2.93952C99.2264 1.06892 96.7229 0.0281294 94.0788 0H9.95781C7.31364 0.0140647 4.81013 1.05485 2.93952 2.93952C1.06892 4.82419 0.0140647 7.29958 0 9.95781V70.0422C0.0140647 72.7004 1.05485 75.1899 2.92546 77.0605C4.79606 78.9311 7.29958 79.9859 9.94374 80H94.0647C96.7229 79.9859 99.2124 78.9452 101.083 77.0605C102.954 75.1899 103.994 72.6864 104.022 70.0422V9.95781C104.008 7.29958 102.968 4.81013 101.083 2.93952H101.097ZM22.7567 24.2475C23.2068 22.0113 24.2897 19.9859 25.8931 18.3826C27.4965 16.7792 29.5359 15.6962 31.7581 15.2461C32.5035 15.0914 33.2489 15.0211 33.9944 15.0211C35.4852 15.0211 36.9761 15.3165 38.3685 15.8931C40.4641 16.7651 42.2504 18.2278 43.5162 20.1125C44.782 21.9972 45.443 24.2053 45.443 26.4698C45.443 28.7342 44.2475 32.4051 42.0816 34.571C39.9156 36.737 37.0464 37.9325 33.9803 37.9325C30.9142 37.9325 29.5077 37.2574 27.6231 36.0056C25.7384 34.7398 24.2757 32.9677 23.4037 30.8579C22.5316 28.7623 22.3066 26.4698 22.7567 24.2335V24.2475ZM54.7961 60.8017C54.0506 61.5471 53.0661 61.955 52.0253 61.9691C50.9705 61.955 49.9859 61.5331 49.2546 60.8017C48.5091 60.0563 48.1013 59.0717 48.0872 58.0309C48.0872 53.7834 47.0042 49.9578 34.0084 49.9578C21.0127 49.9578 19.9297 53.7834 19.9297 58.0309C19.9297 62.2785 19.5077 60.0844 18.7764 60.8158C18.0309 61.5612 17.0464 61.9691 15.9916 61.9691C14.9367 61.9691 13.9522 61.5612 13.2068 60.8158C12.4754 60.0844 12.0534 59.0717 12.0534 58.0309C12.0534 51.2377 15.0211 46.5401 20.8861 44.0928C25.7103 42.0675 31.3361 42.0675 34.0366 42.0675C36.737 42.0675 42.3488 42.0675 47.1871 44.0928C53.038 46.5401 56.0197 51.2377 56.0197 58.0309C56.0056 59.0858 55.5837 60.0703 54.8523 60.8158L54.7961 60.8017ZM78.8467 48.8045C78.1013 49.5499 77.1167 49.9578 76.0619 49.9578H64.0366C62.9817 49.9578 61.9972 49.5499 61.2518 48.8045C60.5063 48.0591 60.0985 47.0745 60.0985 46.0197C60.0985 44.9648 60.5063 43.9803 61.2518 43.2349C61.9972 42.4895 62.9817 42.0816 64.0366 42.0816H76.0619C77.1167 42.0816 78.1013 42.4895 78.8467 43.2349C79.5921 43.9803 80 44.9648 80 46.0197C80 47.0745 79.5921 48.0591 78.8467 48.8045ZM84.8523 30.7736C84.1069 31.519 83.1224 31.9269 82.0675 31.9269H64.0366C62.9817 31.9269 61.9972 31.519 61.2518 30.7736C60.5063 30.0281 60.0985 29.0436 60.0985 27.9887C60.0985 26.9339 60.5063 25.9494 61.2518 25.2039C61.9972 24.4585 62.9817 24.0506 64.0366 24.0506H82.0675C83.1083 24.0506 84.121 24.4726 84.8523 25.2039C85.5977 25.9494 86.0056 26.9339 86.0056 27.9887C86.0056 29.0436 85.5977 30.0281 84.8523 30.7736Z" fill="url(#paint0_linear_258_501)"/>
<path d="M31.4624 29.0012C31.9687 29.5076 32.5876 29.8451 33.2908 29.9717C33.5159 30.0139 33.755 30.042 33.9941 30.042C34.4582 30.042 34.9223 29.9436 35.3583 29.7748C36.0194 29.5076 36.5679 29.0434 36.9617 28.4668C37.3555 27.8761 37.5665 27.1869 37.5665 26.4837C37.5665 25.7804 37.2008 24.6271 36.5257 23.9661C35.8506 23.291 34.9505 22.9253 34.0081 22.9253C33.0658 22.9253 32.6157 23.1363 32.025 23.5301C31.4343 23.9239 30.9842 24.4724 30.717 25.1335C30.4497 25.7804 30.3794 26.4977 30.5201 27.201C30.6607 27.8901 30.9983 28.523 31.4905 29.0294L31.4624 29.0012Z" fill="url(#paint1_linear_258_501)"/>
<defs>
<linearGradient id="paint0_linear_258_501" x1="52.0112" y1="0" x2="52.0112" y2="80" gradientUnits="userSpaceOnUse">
<stop stop-color="#8EF8AA"/>
<stop offset="1" stop-color="#00EFD1"/>
</linearGradient>
<linearGradient id="paint1_linear_258_501" x1="34.0079" y1="22.9253" x2="34.0079" y2="30.042" gradientUnits="userSpaceOnUse">
<stop stop-color="#8EF8AA"/>
<stop offset="1" stop-color="#00EFD1"/>
</linearGradient>
</defs>
</svg>

<svg width="105" height="80" fill="none" xmlns="http://www.w3.org/2000/svg"><path d="M101.097 2.94A10.032 10.032 0 0 0 94.079 0H9.958A9.914 9.914 0 0 0 2.94 2.94C1.069 4.824.014 7.3 0 9.958v60.084a9.934 9.934 0 0 0 2.925 7.019A9.973 9.973 0 0 0 9.944 80h84.12a9.89 9.89 0 0 0 7.019-2.94 10.03 10.03 0 0 0 2.939-7.018V9.958a9.887 9.887 0 0 0-2.939-7.018h.014zm-78.34 21.308a11.455 11.455 0 0 1 3.136-5.865 11.511 11.511 0 0 1 5.865-3.137c.746-.155 1.49-.225 2.236-.225 1.491 0 2.982.295 4.374.872a11.525 11.525 0 0 1 5.148 4.22 11.378 11.378 0 0 1 1.927 6.357c0 2.264-1.195 5.935-3.361 8.101a11.373 11.373 0 0 1-8.102 3.361c-3.066 0-4.472-.675-6.357-1.926a11.45 11.45 0 0 1-4.22-5.148 11.356 11.356 0 0 1-.646-6.625v.014zm32.04 36.554a3.97 3.97 0 0 1-2.772 1.167 3.978 3.978 0 0 1-2.77-1.167 3.968 3.968 0 0 1-1.168-2.771c0-4.248-1.083-8.073-14.079-8.073-12.995 0-14.078 3.825-14.078 8.073s-.422 2.053-1.154 2.785a3.904 3.904 0 0 1-2.784 1.153 3.904 3.904 0 0 1-2.785-1.153 3.963 3.963 0 0 1-1.154-2.785c0-6.793 2.968-11.49 8.833-13.938 4.824-2.026 10.45-2.026 13.15-2.026 2.701 0 8.313 0 13.151 2.026 5.851 2.447 8.833 7.145 8.833 13.938a4.038 4.038 0 0 1-1.168 2.785l-.056-.014zm24.05-11.998a3.904 3.904 0 0 1-2.785 1.154H64.037a3.904 3.904 0 0 1-2.785-1.154 3.903 3.903 0 0 1-1.154-2.784c0-1.055.408-2.04 1.154-2.785a3.904 3.904 0 0 1 2.785-1.153h12.025c1.055 0 2.04.407 2.785 1.153A3.904 3.904 0 0 1 80 46.02c0 1.054-.408 2.04-1.153 2.784zm6.005-18.03a3.904 3.904 0 0 1-2.785 1.153h-18.03a3.904 3.904 0 0 1-2.785-1.153 3.904 3.904 0 0 1-1.154-2.785c0-1.055.408-2.04 1.154-2.785a3.904 3.904 0 0 1 2.785-1.153h18.03c1.041 0 2.054.422 2.785 1.153a3.904 3.904 0 0 1 1.154 2.785c0 1.055-.408 2.04-1.154 2.785z" fill="url(#a)"/><path d="M31.462 29.001a3.419 3.419 0 0 0 1.829.97c.225.043.464.071.703.071.464 0 .928-.098 1.364-.267a3.569 3.569 0 0 0 1.604-1.308c.393-.59.604-1.28.604-1.983 0-.704-.365-1.857-1.04-2.518a3.544 3.544 0 0 0-2.518-1.04c-.942 0-1.392.21-1.983.604a3.48 3.48 0 0 0-1.308 1.604 3.57 3.57 0 0 0-.197 2.067c.14.69.478 1.322.97 1.828l-.028-.028z" fill="url(#b)"/><defs><linearGradient id="a" x1="52.011" y1="0" x2="52.011" y2="80" gradientUnits="userSpaceOnUse"><stop stop-color="#8EF8AA"/><stop offset="1" stop-color="#00EFD1"/></linearGradient><linearGradient id="b" x1="34.008" y1="22.925" x2="34.008" y2="30.042" gradientUnits="userSpaceOnUse"><stop stop-color="#8EF8AA"/><stop offset="1" stop-color="#00EFD1"/></linearGradient></defs></svg>
